X:590
T:Calum Donaldson
C:Joe Buchanan's Scottish Tome - Page 162.3
I:162 3
Z:Carl Allison
R:Reel
L:1/8
M:4/4
K:A
E2 | "A"EAAG ABcd | "A"eAcA "F#m"eAcA | "Bm"Bffe f2 (fg) | "Bm"afec "E7"BdcB |
"A"EAAG "A"ABcd | "A"eAcA "F#m"eAcA | "Bm"Bffe "D"fgaf | "E7"ecBc "A"A2 :|
e2 | "A"agab agfe | "A"fedc dcBA | "Bm"Bffe f2 fg | "B7"afec "E7"Befg |
"A"agab agfe | "A"fedc dcBA | "Bm"Bffe "D"fgaf | "E7"ecBc "A"A2 :|
%
W:Errata: Added an "A" chord to resolve ending of last measure in the A part.

